src/dist/img/mdCompany.svg

<?xml version="1.0" encoding="UTF-8"?>
<svg width="120px" height="120px" viewBox="0 0 120 120" version="1.1" xmlns="http://www.w3.org/2000/svg" xmlns:xlink="http://www.w3.org/1999/xlink">
    <!-- Generator: Sketch 47.1 (45422) - http://www.bohemiancoding.com/sketch -->
    <title>mdCompany</title>
    <desc>Created with Sketch.</desc>
    <defs></defs>
    <g id="Page-1" stroke="none" stroke-width="1" fill="none" fill-rule="evenodd">
        <g id="mdCompany" stroke="#FFFFFF" stroke-width="1.7" fill="#4A4A4A" fill-rule="nonzero">
            <g id="002-monitor-1" transform="translate(12.000000, 24.000000)">
                <path d="M63.7126169,71.1688918 L59.5640787,71.1688918 L58.4485699,66.5339229 L59.1342077,66.5339229 C59.8695374,66.5339229 60.4654742,65.9470176 60.4654742,65.2228318 C60.4654742,64.4988259 59.8695374,63.9117407 59.1342077,63.9117407 L6.91922389,63.9117407 C4.57201502,63.9117407 2.66235015,62.0310167 2.66235015,59.7193797 L2.66235015,22.3110911 C2.66235015,21.5870853 2.06641341,21 1.33108373,21 C0.595754055,21 0,21.5869053 0,22.3110911 L0,59.7195596 C0,63.4770493 3.10409603,66.5339229 6.91922389,66.5339229 L35.0892014,66.5339229 L33.9736926,71.1688918 L29.8249717,71.1688918 C27.4611379,71.1688918 25.5377713,73.06293 25.5377713,75.3911198 L25.5377713,77.7936173 C25.5377713,79.0102495 26.5427523,80 27.7781061,80 L65.7596651,80 C66.995019,80 68,79.0102495 68,77.7936173 L68,75.3911198 C67.9998173,73.0631099 66.0766333,71.1688918 63.7126169,71.1688918 Z M37.8253585,66.5339229 L55.7124128,66.5339229 L56.8279216,71.1688918 L36.709667,71.1688918 L37.8253585,66.5339229 Z M65.3376498,77.3779977 L65.3376498,77.3779977 L28.2001214,77.3779977 L28.2001214,75.3911198 C28.2001214,74.5087826 28.9290569,73.7908941 29.8249717,73.7908941 L63.7126169,73.7908941 C64.6085317,73.7908941 65.3376498,74.5087826 65.3376498,75.3911198 L65.3376498,77.3779977 L65.3376498,77.3779977 Z" id="Shape"></path>
                <path d="M85.2807155,6 L8.71928452,6 C7.21991365,6 6,7.20978342 6,8.69670341 L6,54.3031158 C6,55.7900358 7.21991365,56.9998192 8.71928452,56.9998192 L56.9538173,56.9998192 C57.687552,56.9998192 58.2821961,56.4101131 58.2821961,55.6824714 C58.2821961,54.9550105 57.687552,54.3651235 56.9538173,54.3651235 L8.71928452,54.3651235 C8.68464859,54.3651235 8.65675756,54.3372833 8.65675756,54.302935 L8.65675756,8.69670341 C8.65675756,8.66235511 8.68483089,8.63451491 8.71928452,8.63451491 L85.2808978,8.63451491 C85.3155337,8.63451491 85.3434247,8.66235511 85.3434247,8.69670341 L85.3434247,54.3031158 C85.3434247,54.3374641 85.3153514,54.3653043 85.2808978,54.3653043 L84.0817657,54.3653043 C83.348031,54.3653043 82.7533869,54.9550105 82.7533869,55.6826522 C82.7533869,56.4101131 83.348031,57 84.0817657,57 L85.2808978,57 C86.7800863,56.9998192 88,55.7902166 88,54.3031158 L88,8.69670341 C88,7.20960264 86.7800863,6 85.2807155,6 Z" id="Shape"></path>
                <path d="M87.0464003,0 L6.95341611,0 C3.11943531,0 0,3.09546945 0,6.90040083 L0,11.8593465 C0,12.5924936 0.598881643,13.1869914 1.33784504,13.1869914 C2.07680844,13.1869914 2.67569009,12.5926758 2.67569009,11.8593465 L2.67569009,6.90040083 C2.67569009,4.55957731 4.59479181,2.65510749 6.9535997,2.65510749 L87.0465839,2.65510749 C89.4053918,2.65510749 91.3244935,4.55957731 91.3244935,6.90040083 L91.3244935,59.099417 C91.3244935,61.4402405 89.4053918,63.3447103 87.0465839,63.3447103 L86.4862569,63.3447103 C85.7472935,63.3447103 85.1484118,63.9390259 85.1484118,64.6723552 C85.1484118,65.4055022 85.7472935,66 86.4862569,66 L87.0465839,66 C90.8805647,66 94,62.9045305 94,59.0995992 L94,6.90040083 C93.9998164,3.09546945 90.8803811,0 87.0464003,0 Z" id="Shape"></path>
                <path d="M82.3949695,64.635677 L75.6170311,57.858072 L79.6561367,55.7131452 C80.3009828,55.3708776 80.6636856,54.6551595 80.5584387,53.9327594 C80.4531918,53.2103594 79.9015272,52.6279104 79.1855883,52.4836902 L79.1857739,52.4836902 L62.0760042,49.0344712 C61.505035,48.9193921 60.9194018,49.0962798 60.5080665,49.5077806 C60.0965455,49.9190958 59.9194634,50.505257 60.0343625,51.0758268 L63.4837512,68.184755 C63.6281641,68.9004731 64.2106417,69.4521106 64.9330773,69.5573523 C65.6545848,69.662594 66.3712662,69.2999091 66.7135507,68.6550946 L68.858583,64.6163734 L75.6365213,71.3939784 C76.0274384,71.7846906 76.5471763,72 77.0999546,72 C77.6527329,72 78.1726564,71.7846906 78.5633878,71.3937927 L82.3949695,67.5623996 C83.2016768,66.7555463 83.2016768,65.4427159 82.3949695,64.635677 Z M77.099769,69.0320717 L69.4779991,61.4106767 C69.2223995,61.1550896 68.8777019,61.0145817 68.5214959,61.0145817 C68.4550437,61.0145817 68.3880346,61.0195932 68.3212112,61.0294306 C67.8968824,61.0929098 67.5282397,61.3538796 67.3268413,61.7327127 L65.5981561,64.9875965 L62.9747794,51.9751147 L75.9879012,54.5983624 L72.7328574,56.3269625 C72.3540056,56.5281654 72.093023,56.8971612 72.0297263,57.3212835 C71.966244,57.7454058 72.1075014,58.1745397 72.4108055,58.4778289 L80.0325754,66.0992239 L77.099769,69.0320717 Z" id="Shape"></path>
            </g>
        </g>
    </g>
</svg>

<?xml version="1.0" encoding="utf-8"?>
<!-- Generator: Adobe Illustrator 21.1.0, SVG Export Plug-In . SVG Version: 6.00 Build 0)  -->
<svg version="1.1" id="Layer_1" xmlns="http://www.w3.org/2000/svg" xmlns:xlink="http://www.w3.org/1999/xlink" x="0px" y="0px"
	 viewBox="0 0 94 80" style="enable-background:new 0 0 94 80;" xml:space="preserve">
<title>mdCompany</title>
<desc>Created with Sketch.</desc>
<g id="Page-1">
	<g id="mdCompany">
		<path id="Shape" d="M63.7,71.2h-4.1l-1.1-4.6h0.7c0.7,0,1.3-0.6,1.3-1.3c0-0.7-0.6-1.3-1.3-1.3H6.9c-2.3,0-4.3-1.9-4.3-4.2V22.3
			c0-0.7-0.6-1.3-1.3-1.3S0,21.6,0,22.3v37.4c0,3.8,3.1,6.8,6.9,6.8h28.2L34,71.2h-4.1c-2.4,0-4.3,1.9-4.3,4.2v2.4
			c0,1.2,1,2.2,2.2,2.2h38c1.2,0,2.2-1,2.2-2.2v-2.4C68,73.1,66.1,71.2,63.7,71.2z M37.8,66.5h17.9l1.1,4.6H36.7L37.8,66.5z
			 M65.3,77.4L65.3,77.4H28.2v-2c0-0.9,0.7-1.6,1.6-1.6h33.9c0.9,0,1.6,0.7,1.6,1.6V77.4L65.3,77.4z"/>
		<path id="Shape_1_" d="M85.3,6H8.7C7.2,6,6,7.2,6,8.7v45.6C6,55.8,7.2,57,8.7,57H57c0.7,0,1.3-0.6,1.3-1.3c0-0.7-0.6-1.3-1.3-1.3
			H8.7c0,0-0.1,0-0.1-0.1V8.7c0,0,0-0.1,0.1-0.1h76.6c0,0,0.1,0,0.1,0.1v45.6c0,0,0,0.1-0.1,0.1h-1.2c-0.7,0-1.3,0.6-1.3,1.3
			c0,0.7,0.6,1.3,1.3,1.3h1.2c1.5,0,2.7-1.2,2.7-2.7V8.7C88,7.2,86.8,6,85.3,6z"/>
		<path id="Shape_2_" d="M87,0H7C3.1,0,0,3.1,0,6.9v5c0,0.7,0.6,1.3,1.3,1.3s1.3-0.6,1.3-1.3v-5c0-2.3,1.9-4.2,4.3-4.2H87
			c2.4,0,4.3,1.9,4.3,4.2v52.2c0,2.3-1.9,4.2-4.3,4.2h-0.6c-0.7,0-1.3,0.6-1.3,1.3c0,0.7,0.6,1.3,1.3,1.3H87c3.8,0,7-3.1,7-6.9V6.9
			C94,3.1,90.9,0,87,0z"/>
		<path id="Shape_3_" d="M82.4,64.6l-6.8-6.8l4-2.1c0.6-0.3,1-1.1,0.9-1.8s-0.7-1.3-1.4-1.4h0L62.1,49c-0.6-0.1-1.2,0.1-1.6,0.5
			c-0.4,0.4-0.6,1-0.5,1.6l3.4,17.1c0.1,0.7,0.7,1.3,1.4,1.4c0.7,0.1,1.4-0.3,1.8-0.9l2.1-4l6.8,6.8c0.4,0.4,0.9,0.6,1.5,0.6
			s1.1-0.2,1.5-0.6l3.8-3.8C83.2,66.8,83.2,65.4,82.4,64.6z M77,69.5l-7.1-7.1c-0.3-0.3-0.7-0.5-1.1-0.5c-0.1,0-0.2,0-0.2,0
			c-0.5,0.1-0.9,0.4-1.2,0.8l-2,3.8l-3.1-15.4l15.4,3.1l-3.8,2c-0.4,0.2-0.8,0.7-0.8,1.2c-0.1,0.5,0.1,1,0.5,1.4l7.5,7.3L77,69.5z"
			/>
	</g>
</g>
</svg>
